X:1
T:Title
%%score { 1 | ( 2 3 4 ) }
L:1/8
M:4/4
K:F
V:1 treble nm="Grand Piano"
V:2 bass 
V:3 bass 
V:4 bass 
V:1
 z4 z2 z[Q:1/4=100] A | c2 d2 c2 AB | c2 d2 c3 A | [FA][EG][EG][EG] [EG][Ec][Fc][GB] | %4
[M:7/8] A2 d2 c3 |[M:1/8] A |[M:4/4] c2 d2 c2 AB | c2 d2 c3 A | GGAA [_EAc][DGB][D^Fc][DGd] | %9
[M:7/8] [FA]2 [EG]2 [A,F]3 |] %10
V:2
 z4 z2 z [F,CF] | [F,A,F]2 [F,B,F]2 [F,A,F]2 [F,CF][F,G,F] | [F,A,F]2 [F,B,F]2 [F,A,F]3 [F,CF] | %3
 [C,C][C,C][C,C][C,C] [C,C][C,C][D,C][E,C] |[M:7/8][K:treble] [F,CF]2 [F,B,F]2 [F,A,F]3 | %5
[M:1/8] [F,CF] |[M:4/4] [F,A,F]2 [F,B,F]2 [F,A,F]2 [F,CF][F,G,F] | %7
 [F,A,F]2 [F,B,F]2 [F,A,F]3 [F,CF] | [B,D][B,D][A,D^F][A,DF][K:bass] ^F,G,A,B, | %9
[M:7/8] C3 z z z2 |] %10
V:3
 x8 | x8 | x8 | x8 |[M:7/8][K:treble] x7 |[M:1/8] x |[M:4/4] x8 | x8 | x4[K:bass] x4 | %9
[M:7/8] z z2 B, F,3 |] %10
V:4
 x8 | x8 | x8 | x8 |[M:7/8][K:treble] x7 |[M:1/8] x |[M:4/4] x8 | x8 | x4[K:bass] x4 | %9
[M:7/8] z2 C,2 z z2 |] %10

